X:491
T:When The Leaves Turn Brown
C:Frank Solivan
N:Transcribed by Larry Tanner
R:bluegrass
L:1/8
Q:1/4=210
M:4/4
K:C
^FE FG AG AB | cB cd e4 | ^fg fe dB cA | BG ^FE D2 DC |: "G"B,2 "First Break"D2 G2 A2 | 
Bd BA GF ED | "C"C2 E2 G2 c2 | eg ed c2 (3BcB | "D"D2 ^F2 A2 de | ^fa fe d2 de | 
|1 ^fa fe dB AG | {_B}"G"=B2 [BG][BG] [B2G2] DC :|2 ^fa fe dB A^F | "G"GE DB, G,2 e^f | 
|: g2 B2 g2 B2 | eg za g4 | ga ge dc (3BcB | "D"AG ^FE D2 FE | D2 ^F2 A2 d2 | 
^fa fe d2 de | ^fa fe dB A^F |1 G2 [BG][BG] [B2G2] [B2G2] :|2 GE DB, G,2 DC | 
"Second Break"B,2 D2 G2 A2 | Bd BA GF ED | "C"C2 E2 G2 c2 | eg ed c2 (3BcB | "D"D2 ^F2 A2 de | 
^fa fe df ed | cd Bc A^F DF | "G"GE DB, G,2 DC | B,2 D2 G2 A2 | Bd BA GF ED | 
"C"C2 E2 G2 c2 | eg ed c2 (3BcB | "D"D2 ^F2 A2 de | ^fa fe de fa | ed cB A^F DF | 
"G"GE DB, G,2 e^f | g2 B2 g2 B2 | eg za g4 | ga ge dc (3BcB | "D"AG ^FE D2 FE | 
D^F A^c de ^fd | a^f ef ed cA | cd cB A^F DF | GE DB, G,2 GB | [g2B2D2] B2 g2 B2 | 
eg za g4 | ga ge dc BA | (3"D"BcB A^F D2 FE | D2 ^F2 AB de | ^fa fe de fa | ^fe dc BA ^FD | 
GE DB, G,2 DC | "Third Break"B,2 D2 G2 A2 | Bd BA GF ED | "C"C2 E2 G2 c2 | eg ed c2 ^FE | 
"D"D2 ^F2 A2 de | ^fa fb af ed | ec dB cA BG | "G"A^F GE DC B,A, | G,B, D^F GA Bd | 
gd fd ec dB | "C"_B4 GF zE | [E2_B,2] [E2B,2] [EB,][EB,] [E2B,2] | "D"D2 ^F2 A2 Ac | 
BA ^FE D2 FE | D^F ED CE DC | "G"(3B,CB, G,2 G,2 e^f | [g2B2] [g2B2] [b4d4] | 
[gB][gB] za [g2B2] ga | ge dg ed cB | "D"AB AG ^FE DC | B,G, A,B, CD E^F | GA Bc de ^fe | 
^fa gf ec dB | A^F GE DC B,A, | G,2 [g2B2] [b2d2] [g2B2] | [g2B2] [b2d2] [a2c2] [g2B2] | 
ga ge dc BA | "D"AB A^F D2 FE | D2 ^F2 A2 de | ^fa fe de fa | ^fe dc BA ^FD | 
GE DB, G,2 e^f | "Ending"gb ge dc (3BcB | _B=B GE G2 A_B | Be B_B AG E^F | GE DB, G,4 | 


